!!!COA:	Josquin des Prez
!!!CDT:	~1450-1521/08/27
!!!OPR:	Missa Quem dicunt homines
!!!ONM:	5
!!!OTL:	Agnus Dei
!!!AGN:	Mass; Agnus Dei
!!!SCT:	NJE 10.3
!!!SCA:	New Josquin Edition 10.3
!!!voices:	5
!!!voices-OPR:	4-5
**kern	**kern	**kern	**kern	**kern
*staff5	*staff4	*staff3	*staff2	*staff1
*Ivox	*Ivox	*Ivox	*Ivox	*Ivox
*I"Bassus	*I"Tenor	*I"Altus	*I"Superius	*I"Superius2
*I'B	*I'T	*I'A	*I'S	*I'S2
*>[A,B,C]	*>[A,B,C]	*>[A,B,C]	*>[A,B,C]	*>[A,B,C]
*>A	*>A	*>A	*>A	*>A
*clefF4	*clefGv2	*clefGv2	*clefG2	*clefG2
*k[]	*k[]	*k[]	*k[]	*k[]
*M2/1	*M2/1	*M2/1	*M2/1	*M2/1
*met(C|)	*met(C|)	*met(C|)	*met(C|)	*met(C|)
!!section: Agnus Dei I
!!!OMD: Agnus Dei I
=1-	=1-	=1-	=1-	=1-
1G	0r	0r	0r	0r
2.A\	.	.	.	.
4B\	.	.	.	.
=2	=2	=2	=2	=2
1c	0r	0r	1g	0r
2A\	.	.	2a/	.
[2c\	.	.	2g/	.
=3	=3	=3	=3	=3
4c\]	0r	0r	2.cc\	0r
4B\	.	.	.	.
4A\	.	.	.	.
4G\	.	.	4b\	.
2F\	.	.	2a/	.
2G\	.	.	2g/	.
=4	=4	=4	=4	=4
1A	0r	1r	1cc	0r
1G	.	1d	[1b	.
=5	=5	=5	=5	=5
2r	1r	2.e\	0b]	0r
2.E\	.	.	.	.
.	.	4f\	.	.
.	1G	1g	.	.
4F\	.	.	.	.
2G\	.	.	.	.
=6	=6	=6	=6	=6
0C	2A/	2e\	2r	0r
.	2G/	2.g\	2g/	.
.	2.c\	.	2g/	.
.	.	4f\	.	.
.	.	4e\	2g/	.
.	4B\	4d\	.	.
=7	=7	=7	=7	=7
0r	2A/	2c\	2a/	0r
.	2G/	2d\	2b\	.
.	1c	1e	1g	.
=8	=8	=8	=8	=8
1G	1B	2.d\	2r	0r
.	.	.	2g/	.
.	.	4e\	.	.
2.A\	1r	2f\	2.cc\	.
.	.	2e\	.	.
4B\	.	.	4b\	.
=9	=9	=9	=9	=9
1c	1r	0e	2a/	0r
.	.	.	2g/	.
2A\	1c	.	2a/	.
[2c\	.	.	2g/	.
=10	=10	=10	=10	=10
4c\]	2c\	2r	2e/	0r
4B\	.	.	.	.
4A\	2c\	2e\	2.a/	.
4G\	.	.	.	.
2F\	2d\	2f\	.	.
.	.	.	4g/	.
2G\	2e\	[2e\	[2g/	.
=11	=11	=11	=11	=11
1A	1c	4e\]	2g/]	0r
.	.	4d\	.	.
.	.	1c	2f#i/	.
1G	2r	.	[1g	.
.	2d\	2B\	.	.
=12	=12	=12	=12	=12
1C	2e\	0c	0g]	0r
.	2c\	.	.	.
2C/	1e	.	.	.
2C/	.	.	.	.
=13	=13	=13	=13	=13
2D\	2f\	2r	0r	0r
2E\	2.g\	2G/	.	.
1C	.	2G/	.	.
.	4f\	.	.	.
.	[2e\	2G/	.	.
=14	=14	=14	=14	=14
2r	2e\]	2A/	1r	0r
2D\	4d\	2B\	.	.
.	4c\	.	.	.
2E\	2B\	2G/	2r	.
2C/	2e\	2g\	2cc\	.
=15	=15	=15	=15	=15
2.F\	2.A/	2a\	2cc\	0r
.	.	1f	2cc\	.
4E\	4G/	.	.	.
2D\	4A/	.	2dd\	.
.	4B\	.	.	.
2C/	[2c\	2e\	2ee\	.
=16	=16	=16	=16	=16
1F	2c\]	1f	2cc\	0r
.	2d\	.	4b\	.
.	.	.	4a/	.
1E	2.e\	2r	2g/	.
.	.	2g\	[2cc\	.
.	8d\L	.	.	.
.	8e\J	.	.	.
=17	=17	=17	=17	=17
1r	2f\	2a\	2cc\]	0r
.	2d\	2f\	2dd\	.
2r	1e	1g	2.b\	.
2E\	.	.	.	.
.	.	.	8a/L	.
.	.	.	8g/J	.
=18	=18	=18	=18	=18
2F\	2r	2c\	2a/	0r
2G\	2B\	2r	2b\	.
2C/	2c\	1r	1g	.
[2G\	2d\	.	.	.
=19	=19	=19	=19	=19
4G\]	1G	2r	2r	0r
4A\	.	.	.	.
2B\	.	2d\	2g/	.
2c\	1r	2e\	2.cc\	.
4F\	.	[2f\	.	.
4G\	.	.	4b\	.
=20	=20	=20	=20	=20
4A\	1r	2f\]	2a/	0r
4B\	.	.	.	.
1c	.	2e\	2g/	.
.	2r	1d	2a/	.
2B\	2G/	.	2g/	.
=21	=21	=21	=21	=21
1c	2A/	2.c\	1.e	0r
.	1c	.	.	.
.	.	4d\	.	.
1r	.	4e\	.	.
.	.	4f\	.	.
.	2B\	[2g\	2d/	.
=22	=22	=22	=22	=22
1r	1A	2g\]	0c	0r
.	.	2f\	.	.
1C	2.G/	1e	.	.
.	4A/	.	.	.
=23	=23	=23	=23	=23
2D\	4B\	1d	0r	0r
.	4c\	.	.	.
1F	2.d\	.	.	.
.	.	1r	.	.
.	4c\	.	.	.
2E\	[2c\	.	.	.
=24	=24	=24	=24	=24
1D	2c\]	2r	0r	0r
.	2B\	2d\	.	.
1C	4c\	2e\	.	.
.	4B\	.	.	.
.	4A/	[2g\	.	.
.	4G/	.	.	.
=25	=25	=25	=25	=25
2r	1A	2g\]	0r	0r
2D\	.	2f\	.	.
2E\	2G/	1e	.	.
2C/	[2c\	.	.	.
=26	=26	=26	=26	=26
1G	2c\]	2.d\	2r	0r
.	2B\	.	2g/	.
.	.	4e\	.	.
[1F	1c	4f\	2a/	.
.	.	4g\	.	.
.	.	[2a\	[2cc\	.
=27	=27	=27	=27	=27
2F\]	1d	2a\]	2cc\]	0r
2G\	.	1g	2b\	.
2.A\	1c	.	1a	.
.	.	2f\	.	.
4B\	.	.	.	.
=28	=28	=28	=28	=28
2c\	2r	2.e\	2.g/	0r
2C/	2c\	.	.	.
.	.	4f\	4a/	.
2G\	2d\	2g\	4b\	.
.	.	.	4cc\	.
[2D\	[2f\	[2a\	[2dd\	.
=29	=29	=29	=29	=29
2D\]	2f\]	2a\]	4dd\]	0r
.	.	.	4cc\	.
2E\	2e\	2g\	1cc	.
2F\	1d	2f\	.	.
2G\	.	4e\	2b\	.
.	.	4d\	.	.
=30	=30	=30	=30	=30
[0Cl	2c\	[0el	[0ccl	0r
.	2G/	.	.	.
.	2A/	.	.	.
.	[2c\	.	.	.
=31	=31	=31	=31	=31
0C_	2c\]	0e_	0cc_	0r
.	2B\	.	.	.
.	1A	.	.	.
=32	=32	=32	=32	=32
0C]	0Gl	0e]	0cc]	0r
!!LO:LB:i:g=z
=33||	=33||	=33||	=33||	=33||
*>B	*>B	*>B	*>B	*>B
*clefF4	*clefGv2	*clefGv2	*clefG2	*clefG2
*k[]	*k[]	*k[]	*k[]	*k[]
*M2/1	*M2/1	*M2/1	*M2/1	*M2/1
*met(C|)	*met(C|)	*met(C|)	*met(C|)	*met(C|)
!!section: Agnus Dei II
!!!OMD: Agnus Dei II
1C	0r	1.G	0r	0r
2E\	.	.	.	.
2F\	.	2A/	.	.
=34	=34	=34	=34	=34
4G\	0r	2.B\	0r	0r
4F\	.	.	.	.
4G\	.	.	.	.
4A\	.	4c\	.	.
2B\	.	2d\	.	.
[2c\	.	[2e\	.	.
=35	=35	=35	=35	=35
2c\]	0r	4e\]	0r	0r
.	.	4f\	.	.
2B\	.	2.g\	.	.
2.c\	.	.	.	.
.	.	4f\	.	.
.	.	4e\	.	.
4B\	.	4d\	.	.
=36	=36	=36	=36	=36
4A\	0r	2e\	0r	0r
4G\	.	.	.	.
2F\	.	4f\	.	.
.	.	4e\	.	.
2.G\	.	4d\	.	.
.	.	4c\	.	.
.	.	4B\	.	.
4F\	.	4A/	.	.
=37	=37	=37	=37	=37
4E\	0r	2.e\	0r	0r
4D\	.	.	.	.
2.A\	.	.	.	.
.	.	4d\	.	.
.	.	4c\	.	.
4G\	.	4B\	.	.
4F\	.	4A/	.	.
4E\	.	4G/	.	.
=38	=38	=38	=38	=38
4D\	0r	2.d\	0r	0r
4C/	.	.	.	.
2.G\	.	.	.	.
.	.	4c\	.	.
.	.	4B\	.	.
4F\	.	4A/	.	.
4E\	.	[2e\	.	.
4D\	.	.	.	.
=39	=39	=39	=39	=39
2C/	0r	4e\]	0r	0r
.	.	4d\	.	.
2E\	.	1c	.	.
1D	.	.	.	.
.	.	2B\	.	.
=40	=40	=40	=40	=40
0C	0r	1c	0r	0r
.	.	2r	.	.
.	.	2g\	.	.
=41	=41	=41	=41	=41
2r	0r	2g\	0r	0r
2c\	.	2g\	.	.
2c\	.	1e	.	.
2c\	.	.	.	.
=42	=42	=42	=42	=42
2A\	0r	1f	0r	0r
2B\	.	.	.	.
1c	.	2e\	.	.
.	.	4c\	.	.
.	.	4d\	.	.
=43	=43	=43	=43	=43
2.C/	0r	4e\	0r	0r
.	.	4f\	.	.
.	.	2g\	.	.
4D\	.	.	.	.
4E\	.	4G/	.	.
4F\	.	4A/	.	.
4G\	.	4B\	.	.
4A\	.	4c\	.	.
=44	=44	=44	=44	=44
4B\	0r	4d\	0r	0r
4G\	.	4e\	.	.
4A\	.	4f\	.	.
4B\	.	4d\	.	.
2c\	.	4e\	.	.
.	.	4f\	.	.
4C/	.	[2g\	.	.
4D\	.	.	.	.
=45	=45	=45	=45	=45
4E\	0r	4g\]	0r	0r
4F\	.	4f\	.	.
4G\	.	1e	.	.
4E\	.	.	.	.
1F	.	.	.	.
.	.	2d\	.	.
=46	=46	=46	=46	=46
1E	0r	4e\	0r	0r
.	.	4d\	.	.
.	.	4c\	.	.
.	.	4B\	.	.
2r	.	1c	.	.
2C/	.	.	.	.
=47	=47	=47	=47	=47
2D\	0r	1B	0r	0r
2E\	.	.	.	.
2.F\	.	2r	.	.
.	.	2c\	.	.
4E\	.	.	.	.
=48	=48	=48	=48	=48
2D\	0r	2d\	0r	0r
2C/	.	2e\	.	.
2F\	.	2.f\	.	.
4D\	.	.	.	.
4E\	.	4e\	.	.
=49	=49	=49	=49	=49
4F\	0r	2d\	0r	0r
4G\	.	.	.	.
1A	.	2c\	.	.
.	.	1f	.	.
4G\	.	.	.	.
4F\	.	.	.	.
=50	=50	=50	=50	=50
0c	0r	1e	0r	0r
.	.	2r	.	.
.	.	2c\	.	.
=51	=51	=51	=51	=51
2r	0r	2d\	0r	0r
2C/	.	2e\	.	.
2D\	.	2f\	.	.
2E\	.	4e\	.	.
.	.	4d\	.	.
=52	=52	=52	=52	=52
2.F\	0r	2c\	0r	0r
.	.	4F/	.	.
4E\	.	4G/	.	.
2D\	.	4A/	.	.
.	.	4B\	.	.
2C/	.	[2c\	.	.
=53	=53	=53	=53	=53
1F	0r	2c\]	0r	0r
.	.	4B\	.	.
.	.	4A/	.	.
1E	.	[1G	.	.
=54	=54	=54	=54	=54
2r	0r	1G]	0r	0r
2G\	.	.	.	.
2A\	.	2r	.	.
2B\	.	2d\	.	.
=55	=55	=55	=55	=55
2c\	0r	2e\	0r	0r
4B\	.	2f\	.	.
4A\	.	.	.	.
2G\	.	2.g\	.	.
4C/	.	.	.	.
4D\	.	4f\	.	.
=56	=56	=56	=56	=56
4E\	0r	2e\	0r	0r
4F\	.	.	.	.
1G	.	2d\	.	.
.	.	1g	.	.
4F\	.	.	.	.
4E\	.	.	.	.
=57	=57	=57	=57	=57
2D\	0r	2f\	0r	0r
2C/	.	1e	.	.
[1c	.	.	.	.
.	.	4d\	.	.
.	.	4c\	.	.
=58	=58	=58	=58	=58
2c\]	0r	1.g	0r	0r
4B\	.	.	.	.
4A\	.	.	.	.
2G\	.	.	.	.
2A\	.	4f\	.	.
.	.	4e\	.	.
=59	=59	=59	=59	=59
2F\	0r	4f\	0r	0r
.	.	4e\	.	.
1G	.	4d\	.	.
.	.	4c\	.	.
.	.	2B\	.	.
4F\	.	[2d\	.	.
4E\	.	.	.	.
=60	=60	=60	=60	=60
4F\	0r	2d\]	0r	0r
4E\	.	.	.	.
4D\	.	1c	.	.
4C/	.	.	.	.
1D	.	.	.	.
.	.	2B\	.	.
=61	=61	=61	=61	=61
0Cl	0r	0cl	0r	0r
!!LO:LB:i:g=z
=62||	=62||	=62||	=62||	=62||
*>C	*>C	*>C	*>C	*>C
*clefF4	*clefGv2	*clefGv2	*clefG2	*clefG2
*k[]	*k[]	*k[]	*k[]	*k[]
*M2/1	*M2/1	*M2/1	*M2/1	*M2/1
*met(C|)	*met(C|)	*met(C|)	*met(C|)	*met(C|)
!!section: Agnus Dei III
!!!OMD: Agnus Dei III
1.G	0r	0d	0r	0r
2F\	.	.	.	.
=63	=63	=63	=63	=63
1E	0r	1.e	0r	0r
2C/	.	.	.	.
[2G\	.	4d\	.	.
.	.	4c\	.	.
=64	=64	=64	=64	=64
2G\]	0d	2B\	0r	0r
4F\	.	1c	.	.
4E\	.	.	.	.
1D	.	.	.	.
.	.	2B\	.	.
=65	=65	=65	=65	=65
0C	1.e	1c	0r	0r
.	.	[1g	.	.
.	4d\	.	.	.
.	4c\	.	.	.
=66	=66	=66	=66	=66
0G	2B\	2g\]	1.g	0dd
.	2.c\	4f\	.	.
.	.	4e\	.	.
.	.	1d	.	.
.	4B\	.	.	.
.	4B\	.	2f/	.
.	4A/	.	.	.
=67	=67	=67	=67	=67
0C	1c	0c	1e	1.ee
.	1G	.	2c/	.
.	.	.	[2g/	4dd\
.	.	.	.	4cc\
=68	=68	=68	=68	=68
1r	0r	2r	2g/]	2b\
.	.	2c\	4f/	1cc
.	.	.	4e/	.
1G	.	[1g	1d	.
.	.	.	.	2b\
=69	=69	=69	=69	=69
1.c	0r	2g\]	1c	[0cc
.	.	8g\L	.	.
.	.	8f\	.	.
.	.	8e\	.	.
.	.	8d\J	.	.
.	.	2e\	1r	.
8c\L	.	2e\	.	.
8B\	.	.	.	.
8A\	.	.	.	.
8G\J	.	.	.	.
=70	=70	=70	=70	=70
2A\	0r	2f\	0r	1cc]
2A\	.	2f\	.	.
2B\	.	[1d	.	1r
2B\	.	.	.	.
=71	=71	=71	=71	=71
1G	1r	2d\]	1g	0r
.	.	2.e\	.	.
1A	1c	.	[1cc	.
.	.	4d\	.	.
.	.	4c\	.	.
.	.	4B\	.	.
=72	=72	=72	=72	=72
1.F	1.f	0A	2cc\]	0r
.	.	.	8cc/L	.
.	.	.	8b/	.
.	.	.	8a/	.
.	.	.	8g/J	.
.	.	.	2a/	.
2A\	8f\L	.	2a/	.
.	8e\	.	.	.
.	8d\	.	.	.
.	8c\J	.	.	.
=73	=73	=73	=73	=73
1G	2d\	1r	2b\	1g
.	2d\	.	2b\	.
[1C	2e\	2.c\	1g	[1cc
.	2e\	.	.	.
.	.	4B\	.	.
=74	=74	=74	=74	=74
1C]	2c\	4A/	2r	2cc\]
.	.	4G/	.	.
.	2e\	1g	2g/	8cc/L
.	.	.	.	8b/
.	.	.	.	8a/
.	.	.	.	8g/J
2r	[1d	.	[1dd	2a/
2D\	.	2f#i\	.	2a/
=75	=75	=75	=75	=75
1.G	1d]	0g	2dd\]	2b\
.	.	.	8dd\L	2b\
.	.	.	8cc\	.
.	.	.	8b\	.
.	.	.	8a\J	.
.	[1B	.	2b\	[1g
8G\L	.	.	2b\	.
8F\	.	.	.	.
8E\	.	.	.	.
8D\J	.	.	.	.
=76	=76	=76	=76	=76
2E\	2B\]	1e	1g	2g/]
2E\	2c\	.	.	2.cc\
2F\	[1A	1c	[1a	.
.	.	.	.	4b\
2F\	.	.	.	4a/
.	.	.	.	4g/
=77	=77	=77	=77	=77
1D	1A]	0d	2a/]	2.f/
.	.	.	2.dd\	.
.	.	.	.	4d/
2.G\	[1B	.	.	[1g
.	.	.	4cc\	.
.	.	.	4b\	.
4F\	.	.	4a/	.
=78	=78	=78	=78	=78
2E\	2B\]	2r	2g/	1g]
2C/	2c\	2g\	1cc	.
1G	1d	2g\	.	2r
.	.	2g\	2b\	2dd\
=79	=79	=79	=79	=79
1C	1c	1e	4cc\	2ee\
.	.	.	4b\	.
.	.	.	4a/	1cc
.	.	.	4g/	.
1r	1F	1f	1a	.
.	.	.	.	4b\
.	.	.	.	4a/
=80	=80	=80	=80	=80
2r	0r	1e	0b	1.g
2E\	.	.	.	.
2G\	.	2.d\	.	.
2G\	.	.	.	4f/
.	.	4c\	.	4e/
=81	=81	=81	=81	=81
2G\	1r	2.B\	2r	2d/
2G\	.	.	2b\	1g
.	.	8A/L	.	.
.	.	8G/J	.	.
1D	2r	1A	2dd\	.
.	2A/	.	2dd\	2f#i/
=82	=82	=82	=82	=82
2r	2d\	1G	2dd\	2g/
2G\	2d\	.	2dd\	2d/
2F\	2d\	2r	1a	2.f/
[2D\	2d\	2F/	.	.
.	.	.	.	4g/
=83	=83	=83	=83	=83
4D\]	1A	1f	1dd	1.a
4E\	.	.	.	.
4F\	.	.	.	.
4G\	.	.	.	.
2A\	2.c\	1e	2.cc\	.
[2c\	.	.	.	2g/
.	4B\	.	4dd\	.
=84	=84	=84	=84	=84
2c\]	1G	2r	2ee\	1g
2B\	.	2d\	2dd\	.
1c	2r	2e\	1g	2r
.	2c\	[2g\	.	2g/
=85	=85	=85	=85	=85
1A	2c\	2g\]	1cc	2a/
.	2c\	2f#i\	.	1cc
2G\	1d	2.g\	1r	.
2G\	.	.	.	2b\
.	.	4fni\	.	.
=86	=86	=86	=86	=86
2A\	2c\	2e\	2r	2a/
2B\	2B\	2d\	2g/	1g
1c	1A	2e\	2a/	.
.	.	4d\	[2cc\	2f#i/
.	.	4c\	.	.
=87	=87	=87	=87	=87
0r	1G	1d	2cc\]	2g/
.	.	.	2b\	2g/
.	2r	2c\	2a/	2a/
.	2d\	2B\	[2g/	2b\
=88	=88	=88	=88	=88
1r	2e\	1A	2g/]	0cc
.	2.c\	.	2f#i/	.
1C	.	2G/	1g	.
.	4B\	.	.	.
.	2G/	2c\	.	.
=89	=89	=89	=89	=89
2F\	2A/	2d\	2r	2r
2E\	2G/	2e\	2g/	2cc\
1D	1d	2.f\	2a/	2dd\
.	.	.	2b\	2ff\
.	.	8e\L	.	.
.	.	8d\J	.	.
=90	=90	=90	=90	=90
2r	1c	1g	2cc\	4ee\
.	.	.	.	4dd\
2C/	.	.	2c/	4cc\
.	.	.	.	4b\
2F\	2r	2r	2d/	2a/
2E\	2G/	2c\	2e/	2g/
=91	=91	=91	=91	=91
1D	2A/	2d\	2.f/	2.dd\
.	2B\	2f\	.	.
.	.	.	8e/L	8cc\L
.	.	.	8d/J	8dd\J
1C	4c\	1e	[1g	2ee\
.	4B\	.	.	.
.	4c\	.	.	[2cc\
.	4d\	.	.	.
=92	=92	=92	=92	=92
1G	2e\	2r	1g]	2cc\]
.	2d\	2B\	.	2b\
2F\	2r	1c	2r	2a/
2E\	2G/	.	2e/	2g/
=93	=93	=93	=93	=93
1D	2A/	1d	2f/	1dd
.	2B\	.	2d/	.
2r	4c\	1e	1g	2r
.	4B\	.	.	.
2C/	4c\	.	.	2g/
.	4d\	.	.	.
=94	=94	=94	=94	=94
2c\	2e\	2r	2r	2a/
2B\	2.d\	2G/	2d/	2b\
1A	.	1c	2e/	1cc
.	4c\	.	.	.
.	[2c\	.	2f/	.
=95	=95	=95	=95	=95
1G	2c\]	1d	1g	2r
.	2B\	.	.	2g/
2r	2A/	2e\	1r	2a/
2G\	[2d\	[2g\	.	2b\
=96	=96	=96	=96	=96
1A	2d\]	2g\]	1r	4cc\
.	.	.	.	4b\
.	1c	2f#i\	.	4cc\
.	.	.	.	4dd\
1G	.	[1g	2r	2ee\
.	2B\	.	2d/	2dd\
=97	=97	=97	=97	=97
2C/	2.c\	1g]	1e	2r
1c	.	.	.	2g/
.	4B\	.	.	.
.	2A/	2r	2f/	2a/
2B\	2G/	2d\	2g/	2b\
=98	=98	=98	=98	=98
4A\	1c	2.e\	2.a/	4cc\
4G\	.	.	.	4b\
1c	.	.	.	4cc\
.	.	4f\	4b\	4dd\
.	2r	2g\	2cc\	2ee\
2B\	2G/	2d\	2g/	[2dd\
=99	=99	=99	=99	=99
1A	1c	2e\	1a	4dd\]
.	.	.	.	4cc\
.	.	2f\	.	1cc
1G	1d	1g	2r	.
.	.	.	2dd\	2b\
=100	=100	=100	=100	=100
2.C/	[0cl	2.e\	2ee\	[0ccl
.	.	.	2.cc\	.
4D\	.	4f\	.	.
2E\	.	4g\	.	.
.	.	4e\	4b\	.
[2F\	.	[2a\	4a/	.
.	.	.	4g/	.
=101	=101	=101	=101	=101
2F\]	0c_	2a\]	2f/	0cc_
2E\	.	2g\	2g/	.
1F	.	1f	1a	.
=102	=102	=102	=102	=102
0Cl	0c]	0el	0gl	0cc]
==	==	==	==	==
*-	*-	*-	*-	*-
!!!RDF**kern: l=long note in original notation
!!!RDF**kern: i=editorial accidental
!!!RDF**kern: V=start of tuplet marker
!!!RDF**kern: Z=end of tuplet marker
!!!ENC:	Jesse Rodin (May 2013)
!!!END:	2013/05/09/
!!!EED:	Jesse Rodin
!!!EEV:	2013/05/09/
!!attribution-level@Jos: 4 (questionable)
!!!ONB:	Translated from MusicXML and edited on 2013/05/09/ by Craig Sapp
!!muse2ps: T^@{OPR}^u^@{ONM}{. }@{OTL}^C^@{COA}?\n@{SCT}^i2I150v85,85,85,85,130Q8c150
